X: 4292
T: RIGHTS OF MAN
%R: hornpipe, reel
B: James Kerr "Merry Melodies" v.4 p.31 #292
Z: 2016 John Chambers <jc:trillian.mit.edu>
M: C|
L: 1/8
K: Em
G>A |\
B>dA>B G>AG>F | E>FG>A B2e>f |\
[1 g>fe>d e>dB>d | c>BA>G A2 :|\
[2 g>fe>d B>gf>g | e2E2E2 |]
g>a |:\
b>ag>f e>fg>e | B>eg>e b>eg>e |\
[1 d^cd>e d>ef>g | a>^ga>f b>a=g>a |\
[2 g>fe>d B>gf>g | e2E2E2 |]

%%sep 1 1 500
%%sep 1 1 500

